X:1
T:Alleluya, Verbum caro factum est
T:Alleluya, Verbum caro factum est
T:Antoine Busnois (c.1430-1492)
T:© 2010 by Paul R Marchesnao. May be freely copied fro nonprofit use.
T:© 2010 by Paul R Marchesnao. May be freely copied fro nonprofit use.
T:© 2010 by Paul R Marchesnao. May be freely copied fro nonprofit use.
C:Antoine Busnois
C:(c.1430-1492)
Z:© 2010 by Paul R Marchesnao. May be freely copied fro nonprofit use.
%%score [ 1 2 3 4 ]
L:1/8
Q:1/4=200
M:3/2
K:F
V:1 treble nm="Soprano" snm="S"
V:2 treble-8 nm="Alto" snm="A"
V:3 treble-8 nm="Tenor" snm="T"
V:4 bass nm="Bass" snm="B"
V:1
 c8 c4 | d4 e6 d2 | d8 c4 | d12- | !fermata!d4 z4 z4 | A8 A4 | A8 G4 | A4 F4 G4 | F12- | %9
w: Al- le-|lu- * *|ya. _|_||Ver- bum|ca- ro|fa- * ctum|est.|
 F4 E2 E4 DE | F12- | F4 A4 G4 | A6 F2 G4 | F8 E4 | F12- | !fermata!F4 z4 z4 | A8 A4 | A4 A8 | %18
w: _ _ Al- * *||* * le-|lu- * *||ya.|_|Et ha-|bi- ta-|
 G6 F2 G4 | F12- | F4 G6 F2 | A8 z4 | c8 c4 | c4 d6 c2 | c6 A2 B4 | A8 G3 F | A12- | %27
w: vit _ _|in|_ no- *|bis.|Al- le-|lu- * *|||ya.|
 !fermata!A8 z4 | A12 | G6 A2 B4 | A4 G6 F2 | F12- | F4 E2 D2 E4 | F12 |] %34
w: _|Al-|le- * *|lu- * *|||ya.|
V:2
 G8 c4 | A3 B c4 c3 A | A4 G6 A2 | B12- | !fermata!B4 z4 z4 | d8 d4 | A8 c4 | d2 c2 A2 B2 G4 | %8
w: Al- le-|lu- * * * *|ya. _ _|_||Ver- bum|ca- ro|fa- * ctum _ _|
 A8 d4 | d4 c8 | A4 B3 c d4 | A8 B4 | A4 A2 A4 G2 | B3 A F4 c4 | A4 B8 | !fermata!A4 z4 z4 | %16
w: est. _|_ _|||||||
 c8 f4 | f4 c8 | c2 G3 A B2 c4 | F4 F2 B4 AG | F2 f2 d2 d4 c2 | d8 z4 | c8 c4 | c4 f6 g2 | %24
w: Et ha-|bi- ta-|vit _ _ _ _|_ in _ _ _|_ _ _ no- *|bis.|Al- le-|lu- * *|
 c4 z2 f2 d2 e2 | f8 _e3 c | c12- | !fermata!c8 z4 | d6 c2 A2 B2 | d8 d2 _e2 | A3 B c2 G4 A2- | %31
w: ya, Al- le- *|lu- * *|ya.|_|Al- * * *|le- * *|lu- * * * *|
 A2 B4 AG F2 f2- | fe c4 B2 c4 | c12 |] %34
w: ||ya.|
V:3
 c8 e4 | f4 g8 | f4 _e6 d2 | d12- | !fermata!d4 z4 z4 | f8 f4 | f8 _e4 | f4 d2 d4 c2 | d6 c2 A4 | %9
w: Al- le-|lu- *||ya.|_|Ver- bum|ca- ro|fa- * ctum _|est. _ _|
 B4 G8 | F6 B3 c d2- | d2 cB c2 d2 _e4 | z2 f4 d2 B2 c2 | d3 c A2 B2 G4 | F12- | %15
w: Al- *|* le- * lu-|* * * ya, _ _|Al- le- * *|lu- * * * *|ya.|
 !fermata!F4 z4 z4 | f6 e2 d3 c | c4 f8 | e6 d2 e4 | f4 d6 c2 | A4 B6 AG | F8 z4 | F8 F4 | A4 B8 | %24
w: _|Et _ ha- *|bi- ta-|vit _ _|in _ _|no- * * *|bis.|Al- le-|lu- *|
 A8 G4 | A4 B6 A2 | A12- | !fermata!A8 z4 | f6 ed c2 d2 | e6 f2 g4 | f4 e2 e4 de | %31
w: ||ya.|_|Al- * * * *|le- * *|lu- * * * *|
 f2 d4 cB A2 B2- | B2 A2 G2 F2 G4 | F12 |] %34
w: ||ya.|
V:4
[K:Bb] C,8 C,4 | F,4 C,8 | D,4 E,4 C,4 | G,12- | !fermata!G,4 z4 z4 | D,8 D,4 | D,8 E,4 | %7
w: Al- le-|lu- *||ya.|_|Ver- bum|ca- ro|
 D,2 F,4 D,2 E,4 | D,8 D,4 | B,,4 C,8 | D,4 B,,8 | D,4 F,4 G,4 | F,4 D,4 E,4 | z2 D,4 B,,2 C,4 | %14
w: fa- * * ctum|est. Al-||le- *|lu- * *|ya, _ _|Al- * le-|
 D,6 B,,2 B,,4 | !fermata!F,4 z4 z4 | F,8 F,4 | F,4 F,8 | C,6 D,2 C,4 | D,4 B,,6 C,2 | D,4 z4 E,4 | %21
w: lu- * ya.|_|Et ha-|bi- ta-|vit _ _|in _ _|_ no-|
 D,8 z4 | A,8 A,4 | F,4 D,6 E,2 | F,8 G,4 | F,4 D,4 E,4 | F,12- | !fermata!F,8 z4 | D,8 F,4 | %29
w: bis.|Al- le-|lu- * *|||ya.|_|Al- *|
 C,2 C4 A,2 G,2 E,2 | F,4 C,8 | D,4 B,,3 C, D,2 B,,2- | B,,2 F,2 C,2 D,2 C,4 | F,12 |] %34
w: le- * * * *|lu- *|||ya.|

